X: 20
T: Mrs Spens Monro's Jig
%R: jig
B: Urbani & Liston "A Selection of Scotch, English Irish, and Foreign Airs", Edinburgh 1800, p.9
F: http://www.vwml.org/browse/browse-collections-dance-tune-books/browse-urbani1800
Z: 2014 John Chambers <jc:trillian.mit.edu>
M: 6/8
L: 1/8
K: G
D |\
G2G AGA | Bcd efg | G2G AGA | BGE E2D |\
G2G AGA | Bcd efg | {e}dcB AGA | BGG G2 :|
|: f |\
gfg efg | fdd def | gfg aba | bge e2f |\
gfg aga | bge efg | dcB cBA | BGG G2 :|
